X: 271
T: 272. Ich dank' dir, lieber Herre
N: Derived from chor272.krn
C: Johann Sebastian Bach
%%abc-version 2.0
%%abcx-abcm2ps-target-version 5.9.1 (29 Sep 2008)
%%abc-creator hum2abc beta
%%abcx-conversion-date 2019/03/11 17:28:19
%%abc-edited-by Craig Stuart Sapp
%%humdrum-veritas 2982386198
%%humdrum-veritas-data 3674511179
%%
%%barnumbers 0
L: 1/4
M: C
%%staves [1 2 3 4]
V: 1 clef=treble
V: 2 clef=treble
V: 3 clef=treble-8
V: 4 clef=bass
K: Bb
[V:1] B [I:setbarnb 1]| 
[V:2] F | 
[V:3] d | 
[V:4] B,/A,/ | 
[V:1] BBBc | 
[V:2] G_AGG | 
[V:3] d/e/fe/d/c | 
[V:4] G,D,E,=E, | 
[V:1] _AG!fermata!Fc | 
[V:2] G/F=E/!fermata!FF | 
[V:3] cB!fermata!=Ac | 
[V:4] F,C,!fermata!F,,A,, | 
[V:1] dcB=A/G/ | 
[V:2] F=EFC- | 
[V:3] B/A/GFc | 
[V:4] B,,C,D,=E, | 
[V:1] AG!fermata!FB | 
[V:2] C/F=E/!fermata!CF | 
[V:3] cB!fermata!AB | 
[V:4] F,C,!fermata!F,,D, | 
[V:1] BBBc | 
[V:2] GFGG | 
[V:3] B/c/d_e/d/c | 
[V:4] E,B,,_E,=E, | 
[V:1] _AG!fermata!Fc | 
[V:2] G/F=E/!fermata!FF | 
[V:3] cB!fermata!=Ac | 
[V:4] F,C,!fermata!F,,A,, | 
[V:1] dcB=A/G/ | 
[V:2] F=EFC- | 
[V:3] B/A/GFc | 
[V:4] B,,C,D,=E, | 
[V:1] AG!fermata!Ff | 
[V:2] C/F=E/!fermata!CB/A/ | 
[V:3] cB!fermata!Ad/c/ | 
[V:4] F,C,!fermata!F,,D, | 
[V:1] edcB | 
[V:2] GF/G/AB/_A/ | 
[V:3] B/c/ d/e/ff | 
[V:4] G,/A,/B,E,D, | 
[V:1] B/c/d!fermata!cd | 
[V:2] GF!fermata!FF | 
[V:3] B2!fermata!=A=B | 
[V:4] E,B,,!fermata!F,D, | 
[V:1] edc=B | 
[V:2] E_A/G/ G/F/G | 
[V:3] c3/=B/cd | 
[V:4] C,F,/G,/_A,G, | 
[V:1] !fermata!c3F | 
[V:2] !fermata!G3C | 
[V:3] !fermata!e3=A | 
[V:4] !fermata!C,3E, | 
[V:1] Bcde | 
[V:2] FG/A/BA/G/ | 
[V:3] BEF/f/e- | 
[V:4] D,C,B,,C, | 
[V:1] fe/d/!fermata!ce | 
[V:2] FG!fermata!AB | 
[V:3] e/d/ c/B/!fermata!fB | 
[V:4] D,E,!fermata!F,G, | 
[V:1] dcfB/c/ | 
[V:2] _AGFF/G/ | 
[V:3] BB/c/=AB | 
[V:4] F,E,2D,/E,/ | 
[V:1] dc!fermata!B |]  
[V:2] F/E/ E/D/!fermata!D |]  
[V:3] BA!fermata!F |]  
[V:4] F,F,,!fermata!B,, |]  



